Assets/MILD+MATRIX.cube
TITLE "Generate by Resolve"
LUT_3D_SIZE 5
0 0 0
0.215671 0 0
0.47747 0 0
0.73051 0.00277714 0
0.978149 0.00807202 0
0 0.256336 0
0.209659 0.253056 0
0.466682 0.254185 0
0.716503 0.256458 0
0.961761 0.259236 0
0 0.501884 0
0.211398 0.496483 0
0.46656 0.495842 0
0.714778 0.496605 0
0.958679 0.498116 0
0 0.739391 0
0.213931 0.732723 0
0.467887 0.730953 0
0.715175 0.730831 0
0.958022 0.731334 0
0 0.971618 0
0.216602 0.964172 0
0.469886 0.961791 0
0.716243 0.960784 0
0.958419 0.960662 0
0 0 0.242908
0.216205 0 0.247028
0.476951 0 0.252598
0.729442 0.00189212 0.25803
0.976822 0.00668345 0.263615
0 0.255329 0.242466
0.208194 0.251667 0.238209
0.465095 0.252674 0.239384
0.714641 0.254566 0.241733
0.959762 0.257343 0.244816
0 0.50013 0.245991
0.209262 0.494469 0.239384
0.464424 0.493843 0.238651
0.71252 0.494469 0.239384
0.956283 0.495842 0.241001
0 0.737118 0.249668
0.211398 0.730205 0.241733
0.465354 0.728573 0.239673
0.71252 0.728191 0.239384
0.955215 0.728695 0.239979
0 0.969207 0.25333
0.213931 0.961669 0.244526
0.467094 0.959152 0.241581
0.713451 0.958022 0.240406
0.955474 0.957885 0.240116
0 0 0.529015
0.218067 0 0.530632
0.478279 0 0.535485
0.730373 0.00277714 0.540612
0.977356 0.00706493 0.545754
0 0.255955 0.524758
0.208591 0.252049 0.520211
0.465217 0.252796 0.52108
0.714641 0.254566 0.523293
0.959487 0.257084 0.526375
0 0.500008 0.527398
0.209125 0.494347 0.52079
0.464027 0.493584 0.519768
0.711986 0.493965 0.520348
0.955612 0.495216 0.521813
0 0.736614 0.530632
0.210864 0.729946 0.522698
0.464683 0.727932 0.5205
0.711711 0.727565 0.520058
0.954406 0.727932 0.5205
0 0.96846 0.534005
0.213001 0.960662 0.525048
0.466148 0.958022 0.522118
0.712383 0.957259 0.52079
0.954406 0.956878 0.5205
0 0 0.805127
0.220462 0 0.80557
0.480003 0 0.809689
0.731716 0.00416571 0.814389
0.978286 0.00807202 0.819242
0 0.257084 0.798383
0.209659 0.252934 0.793683
0.466026 0.253559 0.794263
0.715175 0.255192 0.79617
0.959884 0.257603 0.798962
0 0.500496 0.80029
0.209522 0.494713 0.79353
0.464286 0.493706 0.792355
0.712108 0.494087 0.792798
0.955612 0.495354 0.794263
0 0.736736 0.803082
0.210727 0.72958 0.794858
0.464561 0.72781 0.792645
0.711452 0.727184 0.792065
0.954147 0.727687 0.792508
0 0.9682 0.806165
0.212726 0.960525 0.797055
0.465751 0.958022 0.793973
0.711986 0.956512 0.792645
0.953872 0.956374 0.792203
0 0 1
0.222858 0 1
0.48188 0.00177005 1
0.733318 0.00543221 1
0.979614 0.00946059 1
0 0.25861 1
0.210864 0.254063 1
0.467094 0.254444 1
0.716106 0.256077 1
0.960693 0.258228 1
0 0.501259 1
0.210193 0.495354 1
0.46482 0.494347 1
0.712642 0.494713 1
0.956008 0.495598 1
0 0.737118 1
0.211124 0.730083 1
0.46482 0.727932 1
0.711711 0.727565 1
0.954284 0.72781 1
0 0.968338 1
0.212726 0.960525 1
0.465751 0.957885 1
0.711849 0.956756 1
0.95375 0.956252 1
