Assets/MILD+MATRIX.cube
TITLE "Generate by Resolve"
LUT_3D_SIZE 33
0 0 0
0 0 0
0.00579843 0 0
0.0425727 0 0
0.0782635 0 0
0.113405 0 0
0.147768 0 0
0.181872 0 0
0.215671 0 0
0.249104 0 0
0.282261 0 0
0.315267 0 0
0.348043 0 0
0.380545 0 0
0.413123 0 0
0.44538 0 0
0.47747 0 0
0.509514 0 0
0.541375 0 0
0.573083 0 0
0.604791 0.000259403 0
0.636393 0.000762951 0
0.667887 0.00138857 0
0.699199 0.00215152 0
0.73051 0.00277714 0
0.761761 0.00340276 0
0.792798 0.00416571 0
0.823835 0.00479133 0
0.85481 0.00543221 0
0.88574 0.00593576 0
0.916518 0.00668345 0
0.947326 0.007187 0
0.978149 0.00807202 0
0 0.0245975 0
0 0.024094 0
0.00471504 0.0243534 0
0.0405737 0.0247349 0
0.0757305 0.0252384 0
0.110323 0.025742 0
0.144564 0.0262455 0
0.178271 0.0268711 0
0.211933 0.0273747 0
0.245106 0.0280156 0
0.278141 0.0285191 0
0.310994 0.0291447 0
0.343648 0.0296483 0
0.376013 0.0301518 0
0.408438 0.0309148 0
0.440574 0.0314183 0
0.472541 0.0320439 0
0.50457 0.0325475 0
0.536324 0.0331731 0
0.568017 0.033814 0
0.599588 0.0343175 0
0.631052 0.0349432 0
0.662425 0.0355688 0
0.693736 0.0360723 0
0.724895 0.0366979 0
0.756161 0.0373388 0
0.787213 0.0378271 0
0.818112 0.038468 0
0.849073 0.0389715 0
0.880018 0.0394751 0
0.91078 0.0402228 0
0.941451 0.0407263 0
0.972168 0.0413519 0
0 0.0603494 0
0 0.0593423 0
0.00471504 0.0593423 0
0.0402991 0.0594644 0
0.0751965 0.0596017 0
0.109667 0.059968 0
0.143633 0.0603494 0
0.177203 0.0607309 0
0.21059 0.0610971 0
0.243778 0.0616007 0
0.276539 0.0619821 0
0.309392 0.0624857 0
0.341909 0.0629892 0
0.374151 0.0634928 0
0.406439 0.0639963 0
0.438575 0.0644999 0
0.470558 0.0650034 0
0.502297 0.065507 0
0.534051 0.0660105 0
0.565621 0.0665141 0
0.597192 0.0670176 0
0.628641 0.0675212 0
0.660029 0.06804 0
0.691203 0.0686656 0
0.722377 0.0691691 0
0.753491 0.0696727 0
0.784543 0.0701762 0
0.815442 0.0708019 0
0.846265 0.0713207 0
0.877089 0.0718242 0
0.907851 0.0723278 0
0.938506 0.0729534 0
0.969223 0.0734569 0
0 0.0945296 0
0 0.0934005 0
0.00485237 0.0931411 0
0.0402991 0.093019 0
0.0750744 0.0931411 0
0.109392 0.0932631 0
0.143236 0.0935225 0
0.176669 0.093904 0
0.210056 0.0941482 0
0.242969 0.0945296 0
0.275746 0.0949111 0
0.308446 0.0952926 0
0.340841 0.0956588 0
0.373205 0.0960403 0
0.405371 0.0964218 0
0.437385 0.0969253 0
0.469215 0.0973068 0
0.500954 0.0978103 0
0.532723 0.0983139 0
0.564294 0.0986801 0
0.595728 0.0991836 0
0.627039 0.0996872 0
0.658305 0.100191 0
0.689464 0.100572 0
0.720638 0.101076 0
0.751751 0.101579 0
0.782681 0.102083 0
0.813581 0.102586 0
0.844404 0.10309 0
0.875227 0.103593 0
0.905852 0.104097 0
0.936507 0.104601 0
0.967102 0.105104 0
0 0.127749 0
0 0.126482 0
0.00526436 0.126101 0
0.0405737 0.125978 0
0.0750744 0.125856 0
0.109392 0.125978 0
0.143099 0.126101 0
0.176532 0.12636 0
0.209659 0.126604 0
0.242573 0.126864 0
0.275334 0.127108 0
0.307912 0.127367 0
0.340307 0.127749 0
0.372412 0.128115 0
0.404578 0.128496 0
0.436591 0.128878 0
0.468284 0.129259 0
0.500023 0.129625 0
0.531655 0.130007 0
0.563226 0.130388 0
0.594522 0.130892 0
0.625834 0.131273 0
0.657237 0.131777 0
0.688273 0.132158 0
0.71931 0.132662 0
0.750408 0.133043 0
0.781353 0.133547 0
0.812116 0.134051 0
0.842924 0.134432 0
0.873762 0.134936 0
0.904387 0.135439 0
0.934905 0.135821 0
0.965637 0.136324 0
0 0.16054 0
0 0.159152 0
0.00552377 0.158648 0
0.0408331 0.158404 0
0.0753338 0.158267 0
0.109392 0.158267 0
0.143099 0.158404 0
0.17641 0.158526 0
0.209522 0.158648 0
0.242435 0.158907 0
0.275074 0.15903 0
0.307515 0.159274 0
0.33991 0.159655 0
0.372015 0.159915 0
0.404028 0.160159 0
0.43592 0.16054 0
0.46775 0.160922 0
0.499352 0.161181 0
0.530999 0.161547 0
0.562432 0.161929 0
0.593729 0.16231 0
0.62504 0.162676 0
0.656291 0.163058 0
0.687343 0.163561 0
0.718379 0.163943 0
0.74934 0.164324 0
0.780285 0.164691 0
0.811048 0.165194 0
0.841856 0.165576 0
0.872557 0.166079 0
0.903197 0.166461 0
0.9337 0.166964 0
0.964294 0.16733 0
0 0.192752 0
0 0.191363 0
0.0059205 0.190738 0
0.0411078 0.190356 0
0.0754711 0.190234 0
0.109529 0.190097 0
0.143099 0.190097 0
0.17641 0.190234 0
0.209522 0.190356 0
0.242313 0.190478 0
0.274937 0.1906 0
0.307378 0.19086 0
0.339651 0.191104 0
0.37174 0.191363 0
0.403632 0.191608 0
0.435523 0.191867 0
0.467216 0.192111 0
0.498955 0.192493 0
0.530465 0.192752 0
0.561898 0.193118 0
0.593194 0.1935 0
0.624369 0.193759 0
0.655634 0.194125 0
0.686671 0.194507 0
0.717571 0.194888 0
0.748547 0.19527 0
0.779477 0.195651 0
0.810254 0.196017 0
0.840925 0.196521 0
0.871626 0.196902 0
0.902266 0.197284 0
0.932769 0.197665 0
0.963363 0.198169 0
0 0.224659 0
0 0.223148 0
0.00633249 0.222522 0
0.0413672 0.222141 0
0.0757305 0.221881 0
0.109789 0.221759 0
0.143236 0.221759 0
0.176532 0.221759 0
0.209522 0.221759 0
0.242313 0.221881 0
0.274815 0.222019 0
0.30724 0.222141 0
0.339513 0.2224 0
0.371481 0.222522 0
0.403494 0.222766 0
0.435248 0.223026 0
0.466957 0.22327 0
0.498558 0.223529 0
0.530053 0.223789 0
0.561364 0.224155 0
0.59266 0.224414 0
0.623835 0.224796 0
0.6551 0.22504 0
0.686 0.225422 0
0.717037 0.225803 0
0.747875 0.226184 0
0.77882 0.226429 0
0.809445 0.22681 0
0.840253 0.227192 0
0.870832 0.227573 0
0.901457 0.227939 0
0.93196 0.228321 0
0.962432 0.228702 0
0 0.256336 0
0 0.254826 0
0.00672923 0.254063 0
0.0417639 0.253681 0
0.0761425 0.2533 0
0.110063 0.253178 0
0.143496 0.253056 0
0.176669 0.253056 0
0.209659 0.253056 0
0.242313 0.253056 0
0.274815 0.253178 0
0.30724 0.2533 0
0.339376 0.253437 0
0.371344 0.253559 0
0.403235 0.253803 0
0.435111 0.253941 0
0.466682 0.254185 0
0.498283 0.254444 0
0.529793 0.254688 0
0.56109 0.254948 0
0.592264 0.255192 0
0.623438 0.255573 0
0.654551 0.255833 0
0.685603 0.256077 0
0.716503 0.256458 0
0.747341 0.256718 0
0.778149 0.257084 0
0.808927 0.257465 0
0.839582 0.257725 0
0.870298 0.258106 0
0.900801 0.258473 0
0.931167 0.258854 0
0.961761 0.259236 0
0 0.287663 0
0 0.28603 0
0.00712596 0.285267 0
0.0421759 0.284764 0
0.0764019 0.28452 0
0.110323 0.28426 0
0.143771 0.284138 0
0.176806 0.284016 0
0.209796 0.284016 0
0.242435 0.284016 0
0.274815 0.284016 0
0.30724 0.284138 0
0.339376 0.28426 0
0.371344 0.284382 0
0.403235 0.28452 0
0.434989 0.284642 0
0.46656 0.284886 0
0.498024 0.285145 0
0.529519 0.285267 0
0.56083 0.285527 0
0.592004 0.285771 0
0.623163 0.28603 0
0.654292 0.286275 0
0.685206 0.286656 0
0.716106 0.2869 0
0.746944 0.28716 0
0.777752 0.287526 0
0.808392 0.287785 0
0.839048 0.288167 0
0.869627 0.288411 0
0.90013 0.288792 0
0.930632 0.289036 0
0.961089 0.289418 0
0 0.318822 0
0 0.317174 0
0.0075227 0.316289 0
0.0424353 0.315785 0
0.0766613 0.315404 0
0.110597 0.31516 0
0.143908 0.315022 0
0.177066 0.3149 0
0.209918 0.314778 0
0.242573 0.314778 0
0.274937 0.314778 0
0.30724 0.3149 0
0.339376 0.3149 0
0.371344 0.315022 0
0.403098 0.31516 0
0.434852 0.315282 0
0.466423 0.315404 0
0.497887 0.315663 0
0.529397 0.315785 0
0.560555 0.315908 0
0.59173 0.316289 0
0.622904 0.316411 0
0.654017 0.31667 0
0.684947 0.31693 0
0.715709 0.317174 0
0.746532 0.317556 0
0.777356 0.3178 0
0.80798 0.317937 0
0.838651 0.318303 0
0.86923 0.318685 0
0.899733 0.318944 0
0.930098 0.319326 0
0.960555 0.31957 0
0 0.349645 0
0 0.348013 0
0.00793469 0.347127 0
0.0428321 0.346624 0
0.0770733 0.34612 0
0.110857 0.345876 0
0.144167 0.345617 0
0.177203 0.345495 0
0.210193 0.345373 0
0.24271 0.345373 0
0.275074 0.345373 0
0.307378 0.345373 0
0.339376 0.345373 0
0.371344 0.345495 0
0.403098 0.345495 0
0.434852 0.345617 0
0.466423 0.345739 0
0.497887 0.345998 0
0.529259 0.34612 0
0.560433 0.346242 0
0.591592 0.346502 0
0.622629 0.346624 0
0.653758 0.346883 0
0.684672 0.347127 0
0.71545 0.347372 0
0.746273 0.347631 0
0.777081 0.347875 0
0.807721 0.348135 0
0.838254 0.348379 0
0.868833 0.348638 0
0.899336 0.34902 0
0.929702 0.349264 0
0.960159 0.349645 0
0 0.380407 0
0 0.378775 0
0.00846876 0.377768 0
0.0432288 0.377264 0
0.0774701 0.376761 0
0.111131 0.376501 0
0.144442 0.376242 0
0.177462 0.375998 0
0.21033 0.375875 0
0.242832 0.375738 0
0.275212 0.375738 0
0.307515 0.375738 0
0.339513 0.375738 0
0.371344 0.375738 0
0.403235 0.375875 0
0.434852 0.375998 0
0.466423 0.37612 0
0.497749 0.376242 0
0.529122 0.376379 0
0.560433 0.376501 0
0.59147 0.376623 0
0.622507 0.376883 0
0.65362 0.377005 0
0.684413 0.377264 0
0.715312 0.377508 0
0.746136 0.37763 0
0.776822 0.37789 0
0.807462 0.378149 0
0.83798 0.378393 0
0.868559 0.378653 0
0.898939 0.378897 0
0.929305 0.379278 0
0.959762 0.379522 0
0 0.411078 0
0 0.409186 0
0.00886549 0.408423 0
0.0436408 0.407797 0
0.0777295 0.407294 0
0.111528 0.406912 0
0.144839 0.406653 0
0.177737 0.406409 0
0.21059 0.406271 0
0.243107 0.406149 0
0.275471 0.406027 0
0.307652 0.406027 0
0.339651 0.406027 0
0.371481 0.406027 0
0.403235 0.406027 0
0.434852 0.406149 0
0.466423 0.406271 0
0.497749 0.406271 0
0.529122 0.406409 0
0.560296 0.406531 0
0.59147 0.40679 0
0.62237 0.406912 0
0.653483 0.407034 0
0.684276 0.407294 0
0.715038 0.407416 0
0.745876 0.40766 0
0.776547 0.407919 0
0.807187 0.408042 0
0.83772 0.408301 0
0.868299 0.408545 0
0.898665 0.408804 0
0.92903 0.409049 0
0.95935 0.409308 0
0 0.441535 0
0 0.439658 0
0.00926223 0.438773 0
0.0440375 0.43801 0
0.0781262 0.437507 0
0.111803 0.43714 0
0.145098 0.436881 0
0.177996 0.436637 0
0.210864 0.436377 0
0.243366 0.436255 0
0.275608 0.436255 0
0.307774 0.436133 0
0.339773 0.436133 0
0.371618 0.436133 0
0.403372 0.436133 0
0.434989 0.436133 0
0.466423 0.436255 0
0.497749 0.436255 0
0.529122 0.436377 0
0.560296 0.4365 0
0.591333 0.436637 0
0.62237 0.436759 0
0.653361 0.436881 0
0.684276 0.43714 0
0.715038 0.437263 0
0.745739 0.437507 0
0.776425 0.437644 0
0.806928 0.437888 0
0.837446 0.43801 0
0.868025 0.43827 0
0.898405 0.438514 0
0.928771 0.438773 0
0.959091 0.439017 0
0 0.471794 0
0 0.469902 0
0.00965896 0.468879 0
0.0444343 0.468254 0
0.0785382 0.467628 0
0.1122 0.467247 0
0.145373 0.466987 0
0.178408 0.466743 0
0.211124 0.466484 0
0.243503 0.466361 0
0.275868 0.466239 0
0.308049 0.466117 0
0.33991 0.466117 0
0.37174 0.466117 0
0.403494 0.46598 0
0.435111 0.466117 0
0.46656 0.466117 0
0.497887 0.466117 0
0.529122 0.466239 0
0.560296 0.466361 0
0.591333 0.466484 0
0.62237 0.466621 0
0.653361 0.466743 0
0.684138 0.466865 0
0.714916 0.466987 0
0.745602 0.467124 0
0.776287 0.467369 0
0.80679 0.467491 0
0.837308 0.46775 0
0.867903 0.468009 0
0.898268 0.468132 0
0.928496 0.468376 0
0.958816 0.468635 0
0 0.501884 0
0 0.500008 0
0.010071 0.499001 0
0.044831 0.49836 0
0.0789349 0.497734 0
0.112596 0.497353 0
0.145769 0.496986 0
0.178668 0.496727 0
0.211398 0.496483 0
0.243778 0.496223 0
0.276005 0.496101 0
0.308186 0.495979 0
0.340185 0.495979 0
0.371878 0.495842 0
0.403632 0.495842 0
0.435248 0.495842 0
0.46656 0.495842 0
0.497887 0.495979 0
0.529259 0.495979 0
0.560296 0.496101 0
0.591333 0.496101 0
0.62237 0.496223 0
0.653223 0.496345 0
0.684138 0.496483 0
0.714778 0.496605 0
0.745602 0.496727 0
0.77615 0.496986 0
0.806653 0.497108 0
0.837186 0.497353 0
0.867628 0.49749 0
0.897993 0.497734 0
0.928374 0.497856 0
0.958679 0.498116 0
0 0.531991 0
0 0.530098 0
0.010605 0.528969 0
0.0452277 0.528206 0
0.0791943 0.527703 0
0.112871 0.527199 0
0.146029 0.526818 0
0.178943 0.526574 0
0.211658 0.526314 0
0.244038 0.52607 0
0.27628 0.525948 0
0.308446 0.525811 0
0.340307 0.525689 0
0.372152 0.525567 0
0.403769 0.525567 0
0.435386 0.525567 0
0.466682 0.525567 0
0.498024 0.525567 0
0.529259 0.525567 0
0.560433 0.525689 0
0.59147 0.525689 0
0.62237 0.525811 0
0.653223 0.525948 0
0.684138 0.52607 0
0.714778 0.526192 0
0.745464 0.526314 0
0.77615 0.526452 0
0.806653 0.526574 0
0.837049 0.526818 0
0.867491 0.526955 0
0.897871 0.527077 0
0.928237 0.527337 0
0.958556 0.527459 0
0 0.561852 0
0 0.559976 0
0.0110018 0.558846 0
0.0456245 0.558083 0
0.0796063 0.55758 0
0.113268 0.557076 0
0.146441 0.556695 0
0.179339 0.556329 0
0.211933 0.556069 0
0.244312 0.555825 0
0.276539 0.555688 0
0.308721 0.555444 0
0.340581 0.555322 0
0.372274 0.555322 0
0.403906 0.5552 0
0.435523 0.5552 0
0.466819 0.5552 0
0.498146 0.5552 0
0.529397 0.5552 0
0.560433 0.5552 0
0.59147 0.555322 0
0.62237 0.555322 0
0.653361 0.555444 0
0.684138 0.555566 0
0.714778 0.555688 0
0.745464 0.555825 0
0.776013 0.555947 0
0.806516 0.556069 0
0.837049 0.556191 0
0.867491 0.556329 0
0.897734 0.556451 0
0.9281 0.556695 0
0.958282 0.556832 0
0 0.591699 0
0 0.589685 0
0.0113985 0.588678 0
0.0460365 0.587915 0
0.0800031 0.587289 0
0.113664 0.586786 0
0.1467 0.586282 0
0.179599 0.586023 0
0.212329 0.585641 0
0.244709 0.585397 0
0.276799 0.585275 0
0.308843 0.585016 0
0.340841 0.584894 0
0.372549 0.584756 0
0.404166 0.584756 0
0.435645 0.584634 0
0.466957 0.584634 0
0.498283 0.584634 0
0.529519 0.584634 0
0.560555 0.584634 0
0.591592 0.584634 0
0.622507 0.584756 0
0.653361 0.584756 0
0.684138 0.584894 0
0.714778 0.585016 0
0.745464 0.585138 0
0.776013 0.585138 0
0.806516 0.585275 0
0.836912 0.585397 0
0.867369 0.585641 0
0.897734 0.585779 0
0.927977 0.585901 0
0.958282 0.586023 0
0 0.621347 0
0 0.619455 0
0.0117952 0.618326 0
0.0464332 0.617563 0
0.0803998 0.616938 0
0.114061 0.616434 0
0.147097 0.61593 0
0.179873 0.615549 0
0.212589 0.615305 0
0.244968 0.615045 0
0.277073 0.614786 0
0.309117 0.614542 0
0.340978 0.61442 0
0.372686 0.614282 0
0.404303 0.614282 0
0.435782 0.61416 0
0.467216 0.61416 0
0.498421 0.614038 0
0.529656 0.614038 0
0.560693 0.614038 0
0.591592 0.614038 0
0.622507 0.61416 0
0.653483 0.61416 0
0.684138 0.614282 0
0.714778 0.614282 0
0.745464 0.61442 0
0.776013 0.614542 0
0.806516 0.614664 0
0.836912 0.614786 0
0.867369 0.614923 0
0.897597 0.615045 0
0.92784 0.615167 0
0.958144 0.615305 0
0 0.651118 0
0 0.649104 0
0.0123293 0.647974 0
0.0468299 0.647211 0
0.0808118 0.646464 0
0.114336 0.64596 0
0.147494 0.645457 0
0.18027 0.645075 0
0.212863 0.644816 0
0.245243 0.64445 0
0.277333 0.644312 0
0.309392 0.644068 0
0.341238 0.643931 0
0.372946 0.643809 0
0.404578 0.643687 0
0.436057 0.643565 0
0.467353 0.643427 0
0.498558 0.643427 0
0.529793 0.643427 0
0.56083 0.643427 0
0.59173 0.643427 0
0.622629 0.643427 0
0.653483 0.643427 0
0.684276 0.643565 0
0.714916 0.643565 0
0.745464 0.643687 0
0.776013 0.643687 0
0.806516 0.643809 0
0.836912 0.643931 0
0.867369 0.644068 0
0.897597 0.64419 0
0.92784 0.644312 0
0.958144 0.64445 0
0 0.680552 0
0 0.678538 0
0.012726 0.677394 0
0.047364 0.676524 0
0.0812085 0.675883 0
0.114733 0.675395 0
0.147768 0.674891 0
0.180667 0.67451 0
0.21326 0.674128 0
0.245502 0.673884 0
0.277607 0.673625 0
0.309651 0.673381 0
0.341512 0.673121 0
0.373205 0.672999 0
0.4047 0.672877 0
0.436179 0.67274 0
0.467491 0.67274 0
0.498817 0.672618 0
0.529931 0.672618 0
0.560967 0.672618 0
0.591867 0.672618 0
0.622766 0.672618 0
0.65362 0.672618 0
0.684276 0.672496 0
0.714916 0.67274 0
0.745602 0.67274 0
0.77615 0.672877 0
0.806516 0.672877 0
0.836912 0.672999 0
0.867369 0.673121 0
0.897597 0.673243 0
0.92784 0.673381 0
0.958022 0.673503 0
0 0.710079 0
0 0.708064 0
0.013138 0.70692 0
0.0477607 0.706035 0
0.0816052 0.705287 0
0.115129 0.704784 0
0.148165 0.70428 0
0.180926 0.703777 0
0.213535 0.703517 0
0.245899 0.703136 0
0.278004 0.702892 0
0.309926 0.702632 0
0.341772 0.70251 0
0.37348 0.702251 0
0.404974 0.702129 0
0.436454 0.702007 0
0.46775 0.701885 0
0.498955 0.701885 0
0.530053 0.701747 0
0.56109 0.701747 0
0.592004 0.701747 0
0.622904 0.701747 0
0.653758 0.701747 0
0.684413 0.701747 0
0.715038 0.701747 0
0.745602 0.701885 0
0.77615 0.701885 0
0.806516 0.702007 0
0.836912 0.702007 0
0.867369 0.702129 0
0.897597 0.702251 0
0.92784 0.702388 0
0.958022 0.70251 0
0 0.739391 0
0 0.737377 0
0.0135348 0.73611 0
0.0481575 0.735241 0
0.082002 0.7346 0
0.115526 0.733974 0
0.148562 0.733471 0
0.181338 0.733089 0
0.213931 0.732723 0
0.246174 0.732341 0
0.278279 0.732082 0
0.310323 0.731838 0
0.342046 0.731579 0
0.373617 0.731456 0
0.405234 0.731212 0
0.436713 0.73109 0
0.467887 0.730953 0
0.499092 0.730953 0
0.530327 0.730831 0
0.561227 0.730831 0
0.592126 0.730831 0
0.623041 0.730709 0
0.653895 0.730709 0
0.684535 0.730709 0
0.715175 0.730831 0
0.745739 0.730831 0
0.776287 0.730831 0
0.806653 0.730953 0
0.837049 0.730953 0
0.867369 0.73109 0
0.897597 0.731212 0
0.92784 0.731212 0
0.958022 0.731334 0
0 0.768643 0
0 0.766629 0
0.0140688 0.765499 0
0.0485695 0.764492 0
0.082414 0.763851 0
0.115923 0.763226 0
0.148959 0.762722 0
0.181598 0.762219 0
0.214191 0.761837 0
0.246433 0.761456 0
0.278538 0.761212 0
0.310582 0.760952 0
0.342306 0.760693 0
0.373877 0.760571 0
0.405509 0.760327 0
0.436851 0.760067 0
0.468147 0.760067 0
0.499352 0.759945 0
0.530465 0.759945 0
0.561502 0.759823 0
0.592401 0.759823 0
0.623163 0.759686 0
0.654017 0.759686 0
0.684672 0.759686 0
0.715175 0.759686 0
0.745876 0.759823 0
0.776287 0.759823 0
0.806653 0.759823 0
0.837049 0.759945 0
0.867369 0.759945 0
0.897597 0.760067 0
0.92784 0.760067 0
0.958022 0.760189 0
0 0.797925 0
0 0.795895 0
0.0144656 0.794644 0
0.0489662 0.793759 0
0.0828107 0.792996 0
0.116335 0.79237 0
0.149233 0.791867 0
0.18201 0.791363 0
0.214603 0.790982 0
0.24683 0.7906 0
0.278798 0.790219 0
0.310857 0.790097 0
0.34258 0.789853 0
0.374151 0.789593 0
0.405768 0.789334 0
0.43711 0.789212 0
0.468421 0.78909 0
0.499626 0.788968 0
0.530724 0.78883 0
0.561624 0.78883 0
0.592538 0.788708 0
0.623301 0.788708 0
0.654154 0.788708 0
0.68481 0.788708 0
0.715312 0.788708 0
0.745876 0.788708 0
0.776425 0.788708 0
0.80679 0.788708 0
0.837186 0.78883 0
0.867491 0.78883 0
0.897734 0.788968 0
0.92784 0.788968 0
0.958022 0.78909 0
0 0.827008 0
0 0.824994 0
0.0148623 0.823728 0
0.0493629 0.822858 0
0.0832074 0.822095 0
0.116732 0.821469 0
0.14963 0.820966 0
0.182406 0.820462 0
0.214862 0.819959 0
