Assets/MILD+MATRIX.cube
TITLE "Generate by Resolve"
LUT_3D_SIZE 9
0 0 0
0.0782635 0 0
0.215671 0 0
0.348043 0 0
0.47747 0 0
0.604791 0.000259403 0
0.73051 0.00277714 0
0.85481 0.00543221 0
0.978149 0.00807202 0
0 0.127749 0
0.0750744 0.125856 0
0.209659 0.126604 0
0.340307 0.127749 0
0.468284 0.129259 0
0.594522 0.130892 0
0.71931 0.132662 0
0.842924 0.134432 0
0.965637 0.136324 0
0 0.256336 0
0.0761425 0.2533 0
0.209659 0.253056 0
0.339376 0.253437 0
0.466682 0.254185 0
0.592264 0.255192 0
0.716503 0.256458 0
0.839582 0.257725 0
0.961761 0.259236 0
0 0.380407 0
0.0774701 0.376761 0
0.21033 0.375875 0
0.339513 0.375738 0
0.466423 0.37612 0
0.59147 0.376623 0
0.715312 0.377508 0
0.83798 0.378393 0
0.959762 0.379522 0
0 0.501884 0
0.0789349 0.497734 0
0.211398 0.496483 0
0.340185 0.495979 0
0.46656 0.495842 0
0.591333 0.496101 0
0.714778 0.496605 0
0.837186 0.497353 0
0.958679 0.498116 0
0 0.621347 0
0.0803998 0.616938 0
0.212589 0.615305 0
0.340978 0.61442 0
0.467216 0.61416 0
0.591592 0.614038 0
0.714778 0.614282 0
0.836912 0.614786 0
0.958144 0.615305 0
0 0.739391 0
0.082002 0.7346 0
0.213931 0.732723 0
0.342046 0.731579 0
0.467887 0.730953 0
0.592126 0.730831 0
0.715175 0.730831 0
0.837049 0.730953 0
0.958022 0.731334 0
0 0.856107 0
0.0836042 0.851072 0
0.215259 0.84892 0
0.343236 0.847654 0
0.468818 0.846906 0
0.592935 0.846403 0
0.715572 0.846265 0
0.837308 0.846265 0
0.958144 0.846525 0
0 0.971618 0
0.0852064 0.966567 0
0.216602 0.964172 0
0.344442 0.962798 0
0.469886 0.961791 0
0.593729 0.961166 0
0.716243 0.960784 0
0.837858 0.960662 0
0.958419 0.960662 0
0 0 0.0921798
0.0786603 0 0.0956893
0.215396 0 0.0989242
0.347509 0 0.101869
0.476677 0 0.104952
0.603861 0 0.107881
0.729442 0.00189212 0.110674
0.853742 0.00440986 0.113619
0.976959 0.00682078 0.116396
0 0.127245 0.0933547
0.074403 0.125353 0.0910048
0.208728 0.125734 0.0915847
0.339239 0.126741 0.0927596
0.467216 0.128115 0.094377
0.593469 0.129763 0.0962844
0.718105 0.131395 0.0981918
0.841596 0.133165 0.100252
0.964157 0.135058 0.102449
0 0.255329 0.0952468
0.0749371 0.252293 0.0915847
0.208453 0.252049 0.0911574
0.338048 0.252049 0.0915847
0.465354 0.252934 0.0923171
0.590936 0.253803 0.093492
0.715038 0.255192 0.0948196
0.838117 0.256336 0.0964218
0.960159 0.257847 0.0980392
0 0.379278 0.0971695
0.0760052 0.375616 0.0927596
0.208988 0.374609 0.0917372
0.338048 0.37435 0.0915847
0.46482 0.374609 0.0918898
0.590005 0.375235 0.0924697
0.71371 0.375998 0.0933547
0.836378 0.376883 0.0945144
0.958022 0.37789 0.0956893
0 0.500496 0.0990768
0.0773327 0.496345 0.0942245
0.209796 0.49485 0.0927596
0.338582 0.494591 0.0920272
0.464958 0.494347 0.0920272
0.589731 0.494591 0.0921798
0.713176 0.494972 0.0927596
0.835447 0.49572 0.093492
0.956954 0.496483 0.094377
0 0.619837 0.101122
0.0787976 0.615427 0.0958419
0.210864 0.613657 0.0939345
0.339376 0.612894 0.0929122
0.465492 0.612528 0.0924697
0.589868 0.61239 0.0924697
0.713054 0.61265 0.0926223
0.835172 0.613031 0.0930495
0.956283 0.613397 0.0937819
0 0.737743 0.103044
0.0802777 0.732845 0.0974594
0.212055 0.73109 0.0952468
0.340307 0.729946 0.0939345
0.466148 0.72932 0.0932021
0.590402 0.729076 0.0929122
0.713314 0.729076 0.0929122
0.835172 0.729198 0.0930495
0.956146 0.72958 0.093492
0 0.854475 0.104952
0.0818799 0.849546 0.0992142
0.213397 0.847272 0.0965744
0.341375 0.845899 0.0951095
0.466957 0.845136 0.0942245
0.590936 0.844633 0.0936446
0.71371 0.844511 0.0933547
0.835447 0.844633 0.0933547
0.956146 0.844755 0.0936446
0 0.96997 0.106996
0.0833448 0.964813 0.100832
0.21474 0.962417 0.0980392
0.342443 0.960906 0.0964218
0.467887 0.960021 0.0952468
0.59173 0.959152 0.0945144
0.714382 0.95877 0.0940871
0.835843 0.95877 0.0939345
0.95642 0.95877 0.0939345
0 0 0.242908
0.0798657 0 0.244236
0.216205 0 0.247028
0.347906 0 0.249668
0.476951 0 0.252598
0.603983 0 0.25539
0.729442 0.00189212 0.25803
0.853742 0.00428778 0.260822
0.976822 0.00668345 0.263615
0 0.127611 0.241001
0.0745403 0.125231 0.238499
0.20885 0.125734 0.238941
0.339239 0.126741 0.240116
0.467216 0.128252 0.241733
0.593194 0.129503 0.243351
0.717845 0.131273 0.245258
0.841321 0.132784 0.247318
0.963897 0.134554 0.249378
0 0.255329 0.242466
0.0747997 0.252171 0.238804
0.208194 0.251667 0.238209
0.337774 0.252049 0.238651
0.465095 0.252674 0.239384
0.590539 0.253559 0.240406
0.714641 0.254566 0.241733
0.83772 0.255955 0.243198
0.959762 0.257343 0.244816
0 0.379019 0.244236
0.0757305 0.375235 0.239826
0.208591 0.374105 0.238651
0.337652 0.373983 0.238361
0.464424 0.37435 0.238651
0.589471 0.374868 0.239231
0.713176 0.375494 0.240116
0.835706 0.376379 0.241154
0.957488 0.377386 0.242329
0 0.50013 0.245991
0.076936 0.495842 0.241001
0.209262 0.494469 0.239384
0.338048 0.494087 0.238804
0.464424 0.493843 0.238651
0.589075 0.494087 0.238804
0.71252 0.494469 0.239384
0.834775 0.495094 0.240116
0.956283 0.495842 0.241001
0 0.619333 0.247761
0.0782635 0.614786 0.242466
0.21033 0.613031 0.240558
0.33872 0.612146 0.239536
0.46482 0.612024 0.239094
0.589197 0.611765 0.238941
0.712383 0.611765 0.239231
0.834379 0.612146 0.239673
0.955612 0.612894 0.240269
0 0.737118 0.249668
0.0796063 0.732341 0.244083
0.211398 0.730205 0.241733
0.339513 0.72932 0.240406
0.465354 0.728573 0.239673
0.589593 0.728313 0.239384
0.71252 0.728191 0.239384
0.834241 0.728435 0.239536
0.955215 0.728695 0.239979
0 0.853712 0.251575
0.0810712 0.848661 0.245548
0.212589 0.846525 0.243061
0.340581 0.845258 0.241581
0.466148 0.844251 0.240558
0.590127 0.843748 0.239979
0.712779 0.843748 0.239673
0.834516 0.843626 0.239673
0.955215 0.843748 0.239979
0 0.969207 0.25333
0.082536 0.963928 0.247318
0.213931 0.961669 0.244526
0.34165 0.960159 0.242756
0.467094 0.959152 0.241581
0.590799 0.958267 0.240848
0.713451 0.958022 0.240406
0.834913 0.957885 0.240116
0.955474 0.957885 0.240116
0 0 0.387549
0.0810712 0 0.387991
0.217136 0 0.390341
0.348699 0 0.392828
0.477607 0 0.395468
0.604517 0 0.398108
0.729839 0.00215152 0.400748
0.854017 0.00454719 0.403388
0.976959 0.00694286 0.406027
0 0.128115 0.384039
0.0750744 0.125856 0.381399
0.209262 0.126238 0.381689
0.339513 0.127245 0.382712
0.467353 0.128115 0.384176
0.593332 0.129625 0.385794
0.717983 0.131273 0.387701
0.841459 0.132906 0.389609
0.963897 0.134676 0.391653
0 0.255573 0.385061
0.0750744 0.252293 0.381247
0.208316 0.251789 0.380667
0.337911 0.252171 0.380957
0.465095 0.252674 0.381689
0.590539 0.253559 0.382712
0.714519 0.254566 0.383886
0.837583 0.255833 0.385351
0.959487 0.257084 0.386816
0 0.379019 0.386526
0.0757305 0.37499 0.381979
0.208453 0.374105 0.380819
0.337514 0.373846 0.380514
0.464286 0.374105 0.380819
0.589334 0.374609 0.381399
0.712917 0.375372 0.382132
0.835584 0.37612 0.383154
0.957214 0.377127 0.384329
0 0.500008 0.388144
0.0767987 0.495598 0.383154
0.209125 0.494347 0.381552
0.337774 0.493706 0.380819
0.464164 0.493584 0.380667
0.5888 0.493706 0.380819
0.712108 0.494209 0.381247
0.834516 0.494713 0.381979
0.955886 0.495476 0.382864
0 0.619089 0.389746
0.0778668 0.614542 0.384482
0.209918 0.612772 0.382422
0.338308 0.611887 0.381399
0.464424 0.611505 0.380957
0.5888 0.611383 0.380819
0.711849 0.611505 0.380957
0.833982 0.611887 0.381399
0.955077 0.61239 0.381979
0 0.736736 0.391501
0.0791943 0.73196 0.385946
0.210986 0.730083 0.383597
0.339117 0.728817 0.382284
0.464958 0.728069 0.381552
0.589075 0.72781 0.381109
0.711986 0.72781 0.381109
0.833844 0.72781 0.381247
0.954681 0.728313 0.381689
0 0.85333 0.393271
0.0805371 0.848295 0.387411
0.212192 0.846021 0.384909
0.340047 0.844511 0.383307
0.465629 0.84387 0.382284
0.589593 0.843366 0.381689
0.712245 0.843122 0.381399
0.833982 0.843244 0.381399
0.954681 0.843122 0.381552
0 0.968704 0.395026
0.082002 0.963302 0.389013
0.213397 0.961028 0.386236
0.340978 0.959518 0.384329
0.466423 0.958389 0.383154
0.590265 0.957885 0.382422
0.712779 0.957519 0.381979
0.834241 0.957259 0.381689
0.954818 0.957259 0.381689
0 0 0.529015
0.082414 0 0.528725
0.218067 0 0.530632
0.349508 0 0.532982
0.478279 0 0.535485
0.605051 0.000381476 0.537972
0.730373 0.00277714 0.540612
0.854414 0.00479133 0.543114
0.977356 0.00706493 0.545754
0 0.128878 0.524163
0.0757305 0.126482 0.521385
0.209796 0.126741 0.521523
0.340047 0.127489 0.52256
0.46775 0.128618 0.523873
0.593729 0.129885 0.52549
0.718242 0.131518 0.52726
0.841596 0.133165 0.529168
0.964034 0.134676 0.531075
0 0.255955 0.524758
0.0753338 0.252674 0.520943
0.208591 0.252049 0.520211
0.338186 0.252293 0.5205
0.465217 0.252796 0.52108
0.590661 0.253803 0.522118
0.714641 0.254566 0.523293
0.837583 0.255695 0.524605
0.959487 0.257084 0.526375
0 0.379278 0.526085
0.0758679 0.375372 0.521523
0.208591 0.37435 0.520211
0.337652 0.373846 0.519905
0.464286 0.373983 0.520058
0.589334 0.374609 0.520638
0.712917 0.375235 0.521385
0.835447 0.37612 0.522408
0.957076 0.377005 0.52343
0 0.500008 0.527398
0.0767987 0.49572 0.522408
0.209125 0.494347 0.52079
0.337774 0.493584 0.520058
0.464027 0.493584 0.519768
0.588663 0.493584 0.519905
0.711986 0.493965 0.520348
0.834241 0.494469 0.52108
0.955612 0.495216 0.521813
0 0.619089 0.529015
0.0778668 0.61442 0.523583
0.209918 0.61265 0.521675
0.338186 0.611765 0.5205
0.464286 0.611261 0.520058
0.588663 0.611261 0.519905
0.711711 0.611261 0.520058
0.833707 0.611643 0.520348
0.954818 0.612146 0.520943
0 0.736614 0.530632
0.0790723 0.731838 0.52491
0.210864 0.729946 0.522698
0.338842 0.728695 0.521233
0.464683 0.727932 0.5205
0.5888 0.727428 0.520058
0.711711 0.727565 0.520058
0.833448 0.72781 0.520211
0.954406 0.727932 0.5205
0 0.853086 0.532387
0.0802777 0.848035 0.526375
0.211933 0.845762 0.523735
0.339773 0.844511 0.522255
0.465354 0.843366 0.521233
0.589334 0.842863 0.520638
0.711986 0.842741 0.520348
0.83357 0.842741 0.520211
0.954284 0.842863 0.520348
0 0.96846 0.534005
0.0816052 0.963043 0.52784
0.213001 0.960662 0.525048
0.340703 0.959274 0.523293
0.466148 0.958022 0.522118
0.589868 0.957519 0.521233
0.712383 0.957259 0.52079
0.833844 0.956756 0.5205
0.954406 0.956878 0.5205
0 0 0.667979
0.0838788 0 0.667247
0.219257 0 0.669001
0.350439 0 0.671061
0.479072 0 0.673396
0.605722 0.00112917 0.675746
0.730907 0.00340276 0.678233
0.854948 0.00543221 0.68072
0.977752 0.00756847 0.683223
0 0.129763 0.662272
0.0765393 0.127245 0.659342
0.210452 0.127367 0.659342
0.340581 0.128115 0.660212
0.468284 0.129122 0.66154
0.594125 0.13051 0.663005
0.718639 0.132021 0.664759
0.841993 0.13341 0.666514
0.964294 0.13518 0.668421
0 0.25658 0.662409
0.0758679 0.253178 0.65861
0.209125 0.252674 0.657877
0.338445 0.252552 0.657877
0.465629 0.2533 0.65861
0.590936 0.253803 0.65948
0.714916 0.25507 0.660655
0.83772 0.256077 0.661982
0.959762 0.257343 0.663447
0 0.379522 0.663447
0.0761425 0.375616 0.6589
0.20885 0.374487 0.657572
0.337774 0.374105 0.657145
0.464424 0.37435 0.657282
0.589471 0.374609 0.657877
0.713054 0.375494 0.65861
0.835584 0.37612 0.65948
0.957076 0.377127 0.660655
0 0.500252 0.664759
0.076936 0.495979 0.659785
0.209262 0.494469 0.658015
0.337774 0.493706 0.657145
0.464164 0.493584 0.656992
0.5888 0.493584 0.657145
0.712108 0.493843 0.657435
0.834241 0.494469 0.658167
0.955612 0.495216 0.6589
0 0.619211 0.666224
0.0778668 0.614542 0.660807
0.209918 0.612772 0.658747
0.338186 0.611887 0.657572
0.464164 0.611261 0.656992
0.58854 0.611002 0.65684
0.711589 0.611261 0.656992
0.83357 0.611765 0.657435
0.954681 0.612024 0.657877
0 0.736614 0.667689
0.0790723 0.731579 0.661982
0.210727 0.729702 0.659632
0.338842 0.728695 0.65832
0.464561 0.72781 0.657435
0.588663 0.727565 0.656992
0.711589 0.727428 0.656992
0.83331 0.727565 0.656992
0.954284 0.72781 0.657435
0 0.852964 0.669306
0.0802777 0.847913 0.663294
0.211658 0.845518 0.660655
0.339513 0.844129 0.659052
0.465095 0.843366 0.658015
0.589075 0.842741 0.657435
0.711711 0.842618 0.657145
0.83331 0.842359 0.656992
0.954009 0.842481 0.657145
0 0.968338 0.670909
0.0814679 0.963043 0.664759
0.212863 0.960662 0.66183
0.340444 0.959014 0.660075
0.465888 0.958022 0.6589
0.589593 0.957259 0.658015
0.712108 0.956878 0.657572
0.83357 0.956634 0.657282
0.954147 0.956756 0.657282
0 0 0.805127
0.0852064 0 0.804105
0.220462 0 0.80557
0.351507 0 0.807477
0.480003 0 0.809689
0.606516 0.00201419 0.811887
0.731716 0.00416571 0.814389
0.855619 0.00605783 0.816739
0.978286 0.00807202 0.819242
0 0.130648 0.79852
0.0773327 0.127993 0.795438
0.211261 0.127871 0.795438
0.341238 0.128878 0.79617
0.468818 0.129763 0.797498
0.594659 0.131014 0.798825
0.719036 0.132403 0.800427
0.84239 0.133913 0.802197
0.964691 0.135561 0.804105
0 0.257084 0.798383
0.0764019 0.253681 0.794415
0.209659 0.252934 0.793683
0.338979 0.253056 0.793683
0.466026 0.253559 0.794263
0.591333 0.254444 0.795148
0.715175 0.255192 0.79617
0.838117 0.256336 0.797498
0.959884 0.257603 0.798962
0 0.380041 0.799252
0.0765393 0.375998 0.794553
0.209262 0.374868 0.79324
0.338186 0.374487 0.792798
0.464683 0.374487 0.79295
0.589593 0.37499 0.793378
0.713176 0.375494 0.793973
0.835706 0.376242 0.794995
0.957214 0.377264 0.796033
0 0.500496 0.80029
0.0771954 0.496223 0.7953
0.209522 0.494713 0.79353
0.338048 0.493965 0.792645
0.464286 0.493706 0.792355
0.588937 0.493843 0.792508
0.712108 0.494087 0.792798
0.834379 0.494469 0.793378
0.955612 0.495354 0.794263
0 0.619333 0.801602
0.0780041 0.614664 0.79617
0.210056 0.612894 0.794125
0.338308 0.611887 0.79295
0.464286 0.611261 0.792355
0.588663 0.611261 0.792203
0.711589 0.611261 0.792203
0.83357 0.611505 0.792645
0.954681 0.612024 0.793088
0 0.736736 0.803082
0.0790723 0.731838 0.797345
0.210727 0.72958 0.794858
0.338842 0.728573 0.79353
0.464561 0.72781 0.792645
0.588663 0.727428 0.792203
0.711452 0.727184 0.792065
0.83331 0.727306 0.792203
0.954147 0.727687 0.792508
0 0.852964 0.804547
0.0801404 0.847913 0.79852
0.211658 0.845518 0.79588
0.339513 0.844129 0.794263
0.465095 0.843244 0.79324
0.588937 0.842741 0.792645
0.711589 0.842359 0.792203
0.833173 0.842359 0.792203
0.953872 0.842618 0.792203
0 0.9682 0.806165
0.0814679 0.962921 0.799847
0.212726 0.960525 0.797055
0.340307 0.958892 0.795148
0.465751 0.958022 0.793973
0.589471 0.957137 0.793088
0.711986 0.956512 0.792645
0.83331 0.956512 0.792355
0.953872 0.956374 0.792203
0 0 0.940993
0.0865492 0 0.939529
0.221653 0 0.940703
0.35256 0 0.942596
0.480934 0.000885023 0.944503
0.607446 0.00277714 0.9467
0.732372 0.00479133 0.94905
0.856291 0.00668345 0.951385
0.978958 0.00857557 0.953735
0 0.131655 0.933516
0.0782635 0.128878 0.930297
0.212055 0.128878 0.930297
0.342046 0.129503 0.930877
0.46949 0.130388 0.932052
0.595331 0.131518 0.933379
0.719707 0.132906 0.934981
0.842924 0.134295 0.936736
0.965103 0.136065 0.938506
0 0.257847 0.933074
0.0770733 0.254322 0.928985
0.210193 0.253559 0.9281
0.339513 0.253559 0.928252
0.466423 0.253941 0.928679
0.59173 0.254688 0.929564
0.715572 0.255573 0.930587
0.838392 0.256718 0.931762
0.960296 0.257847 0.933227
0 0.380407 0.933669
0.0770733 0.376501 0.928985
0.209659 0.375372 0.927657
0.338582 0.37499 0.927077
0.465095 0.374868 0.927214
0.590005 0.375235 0.92752
0.713573 0.375875 0.928252
0.835981 0.376623 0.929122
0.957488 0.377386 0.930144
0 0.500877 0.934691
0.0774701 0.496345 0.929564
0.209796 0.494972 0.927657
0.338308 0.494347 0.926787
0.464561 0.493965 0.926482
0.589075 0.493965 0.926635
0.712383 0.494209 0.926925
0.834516 0.49485 0.92752
0.955749 0.495598 0.928252
0 0.619593 0.935866
0.0782635 0.614923 0.930297
0.210193 0.613031 0.928252
0.338445 0.612024 0.927077
0.464424 0.611505 0.926482
0.5888 0.611383 0.926192
0.711711 0.611261 0.926345
0.833707 0.611643 0.926635
0.954818 0.612146 0.927077
0 0.736873 0.937179
0.0791943 0.73196 0.931319
0.210864 0.729946 0.928985
0.338842 0.728695 0.92752
0.464683 0.727932 0.926635
0.5888 0.727565 0.926192
0.711589 0.727428 0.926055
0.83331 0.727306 0.926192
0.954147 0.727687 0.926482
0 0.853086 0.938506
0.0802777 0.847913 0.932494
0.211795 0.84564 0.929854
0.339513 0.844373 0.928252
0.465095 0.843244 0.927077
0.588937 0.842741 0.926482
0.711589 0.842618 0.926192
0.833173 0.842359 0.926055
0.953872 0.842359 0.926055
0 0.9682 0.939971
0.0814679 0.963043 0.933806
0.212726 0.960525 0.930877
0.340307 0.958892 0.929122
0.465629 0.957763 0.92781
0.589471 0.957137 0.926925
0.711849 0.956634 0.926482
0.83331 0.956512 0.926192
0.95375 0.95613 0.926055
0 0 1
0.088014 0 1
0.222858 0 1
0.353628 0.000122072 1
0.48188 0.00177005 1
0.608255 0.00366217 1
0.733318 0.00543221 1
0.856947 0.00732433 1
0.979614 0.00946059 1
0 0.132662 1
0.0791943 0.129763 1
0.213001 0.129625 1
0.34284 0.130007 1
0.470283 0.130892 1
0.596002 0.13228 1
0.720241 0.133547 1
0.843458 0.134798 1
0.965637 0.136324 1
0 0.25861 1
0.0778668 0.25507 1
0.210864 0.254063 1
0.340185 0.254185 1
0.467094 0.254444 1
0.592264 0.255329 1
0.716106 0.256077 1
0.838926 0.257084 1
0.960693 0.258228 1
0 0.381048 1
0.0776074 0.377005 1
0.210193 0.375738 1
0.338979 0.375113 1
0.465492 0.375235 1
0.590402 0.375616 1
0.713848 0.37612 1
0.83624 0.376883 1
0.957748 0.37789 1
0 0.501259 1
0.0780041 0.496727 1
0.210193 0.495354 1
0.338582 0.494591 1
0.46482 0.494347 1
0.589334 0.494209 1
0.712642 0.494713 1
0.834775 0.494972 1
0.956008 0.495598 1
0 0.619959 1
0.0785382 0.615167 1
0.210452 0.613275 1
0.33872 0.612268 1
0.464683 0.611765 1
0.588937 0.611505 1
0.711986 0.611643 1
0.833844 0.611765 1
0.95494 0.612268 1
0 0.737118 1
0.079469 0.73196 1
0.211124 0.730083 1
0.339117 0.728817 1
0.46482 0.727932 1
0.588937 0.727565 1
0.711711 0.727565 1
0.83331 0.727687 1
0.954284 0.72781 1
0 0.853208 1
0.0803998 0.848035 1
0.211933 0.845762 1
0.339651 0.844511 1
0.465217 0.843366 1
0.589075 0.842618 1
0.711589 0.842618 1
0.833173 0.842359 1
0.953872 0.842618 1
0 0.968338 1
0.0814679 0.963043 1
0.212726 0.960525 1
0.340307 0.958892 1
0.465751 0.957885 1
0.589471 0.957015 1
0.711849 0.956756 1
0.833173 0.956252 1
0.95375 0.956252 1
